X:1
T:Light After Darkness
T:Light After Darkness
T:Ira David Sankey
T:Frances Ridley Havergal, 1879
T:Public Domain Courtesy of the Cyber Hymnal™
C:Ira David Sankey
Z:Public Domain
Z:Courtesy of the Cyber Hymnal™
%%score ( 1 2 ) ( 3 4 )
L:1/8
Q:1/4=112
M:3/4
K:Eb
V:1 treble 
V:2 treble 
V:3 bass 
V:4 bass 
V:1
 [GB]2 [EG]2 [FA]2 | ([GB]>[^F=A]) [GB]4 | [Gc]2 [=EG]2 [GB]2 | [FA]6 | [FA]2 [DF]2 [EG]2 | %5
w: 1.~Light af- ter|dark- * ness,|gain af- ter|loss,|Strength af- ter|
w: 2.~Sheaves af- ter|sow- * ing,|sun af- ter|rain,|Sight af- ter|
w: 3.~Near af- ter|dis- * tant,|gleam after gloom,|Love|after lone- li-|
 ([FA]>[=EG]) [FA]4 | [DB]2 [DF]2 [DA]2 | [EG]6 | [GB]2 [EG]2 [FA]2 | ([GB]>[^F=A]) [GB]4 | %10
w: weak- * ness,|crown af- ter|cross;|Sweet af- ter|bit- * ter,|
w: myster- * y,|peace af- ter|pain;|Joy af- ter|sor- * row,|
w: ness, * life|af- ter tomb;|Af-|ter long a-|gon- * y,|
 [Ee]2 [Ed]2 [Ec]2 | [EB]6 | [Ec]2 [Ad]2 [Ae]2 | ([Ge]>[GB]) [EB]4 | [EG]2 [DA]2 [DF]2 | E6 |] %16
w: hope af- ter|fears,|Home af- ter|wander- * ing,|praise af- ter|tears.|
w: calm af- ter|blast,|Rest a- fter|weari- * ness,|sweet rest at|last.|
w: rap- ture of|bliss,|Right was the|path- * way,|lead- ing to|this.|
V:2
 x6 | x6 | x6 | x6 | x6 | x6 | x6 | x6 | x6 | x6 | x6 | x6 | x6 | x6 | x6 | E6 |] %16
V:3
 [E,B,]2 [E,B,]2 [E,B,]2 | [E,E]2 [E,E]4 | [C,=E]2 [C,C]2 [C,C]2 | [F,C]6 | %4
 [B,,B,]2 [B,,B,]2 [B,,B,]2 | ([B,,B,]>[B,,B,]) [B,,B,]4 | [B,,F,]2 [B,,B,]2 [B,,B,]2 | [E,B,]6 | %8
 [E,E]2 [E,B,]2 [E,B,]2 | ([E,E]>[E,E]) [E,E]4 | [E,C]2 [E,B,]2 [E,A,]2 | [E,G,]6 | %12
 A,2 [F,B,]2 [E,C]2 | ([E,B,]>[E,B,]) [E,G,]4 | [B,,B,]2 [B,,F,]2 [B,,A,]2 | [E,G,]6 |] %16
V:4
 x6 | x6 | x6 | x6 | x6 | x6 | x6 | x6 | x6 | x6 | x6 | x6 | A,2 x4 | x6 | x6 | x6 |] %16

